X:8
T: Pirun nukutuspolka
O: Finland
R: Polka
M: 2/4
L: 1/16
K:F
|:C2=B,C D2C2|F2EF A2F2|G2EG BGEG|FEFG A2F2|
C2=B,C D2C2|F2EF A2F2|G2EG BGEG|F2A2 F4:|
|:BFBF BFBF|AFAF AFAF|GFEF GAGE|FEFG A2F2|
BFBF BFBF|AFAF AFAF|GFEF GAGE|F2A2 F4:|

